!!!COM: Bach, Johann Sebastian
!!!OTA: Das wohltemperirte Clavier
!!!OPR: Das wohltemperierte Klavier
!!!OTL: Fuga 21, Vol. 1
!!!XEN: The Well-Tempered Clavier, Volume 1, Fugue 21.
!!!ONB: B-flat major, 3-part
!!!SCT: BWV 866b
!!!YEC: Copyright 1994, David Huron
!!!YEM: Rights to all derivative electronic formats reserved.
**kern	**kern	**kern
*staff2	*staff1	*staff1
*clefF4	*clefG2	*clefG2
*k[b-e-]	*k[b-e-]	*k[b-e-]
*M3/4	*M3/4	*M3/4
*B-:	*B-:	*B-:
*MM100	*MM100	*MM100
=1	=1	=1
2.r	2.r	8r
.	.	8f
.	.	8g
.	.	8f
.	.	8b-
.	.	8d
=2	=2	=2
2.r	2.r	8c
.	.	16a
.	.	16g
.	.	16b-
.	.	16a
.	.	16g
.	.	16f
.	.	8cc
.	.	8e-
=3	=3	=3
2.r	2.r	8d
.	.	16b-
.	.	16cc
.	.	16a
.	.	16b-
.	.	16cc
.	.	16dd
.	.	16ee-
.	.	16dd
.	.	16cc
.	.	16ee-
=4	=4	=4
2.r	2.r	16dd
.	.	16cc
.	.	16b-
.	.	16cc
.	.	16a
.	.	16b-
.	.	16cc
.	.	16dd
.	.	16ee-
.	.	16dd
.	.	16cc
.	.	16ee-
=5	=5	=5
2.r	8r	8.dd
.	8B-	.
.	.	16cc
.	8d	16b-
.	.	16a
.	8B-	16b-
.	.	16cc
.	8f	8dd
.	8A	[8ff
=6	=6	=6
2.r	8G	8ff]
.	16en	8b-
.	16d	.
.	16f	8a
.	16e	.
.	16d	8b-
.	16c	.
.	8g	8een
.	8B-	[8gg
=7	=7	=7
2.r	8A	8gg]
.	16f	16a
.	16g	16b-
.	16en	8cc
.	16f	.
.	16g	8cc
.	16a	.
.	16b-	8cc
.	16a	.
.	16g	8cc
.	16b-	.
=8	=8	=8
2.r	16a	16cc
.	16g	16b-
.	16f	16a
.	16g	16b-
.	16en	8cc
.	16f	.
.	16g	8cc
.	16a	.
.	16b-	8cc
.	16a	.
.	16g	8cc
.	16b-	.
=9	=9	=9
8r	8.a	4cc
8F	.	.
.	16g	.
8G	16f	4r
.	16e-	.
8F	16d	.
.	16e-	.
8B-	8f	16r
.	.	16dd
8D	[8b-	16b-
.	.	16dd
=10	=10	=10
8C	8b-]	8ee-
16A	8e-	8r
16G	.	.
16B-	8d	4r
16A	.	.
16G	8e-	.
16F	.	.
8c	8a	16r
.	.	16ee-
8E-	[8cc	16cc
.	.	16ee-
=11	=11	=11
8D	8cc]	8ff
16B-	16d	8r
16c	16e-	.
16A	8f	8r
16B-	.	.
16c	8f	16a
16d	.	16b-
16e-	8f	16cc
16d	.	16b-
16c	8f	16a
16e-	.	16cc
=12	=12	=12
16d	16f	4b-
16c	16e-	.
16B-	16d	.
16c	16e-	.
16A	8f	8r
16B-	.	.
16c	8f	16a
16d	.	16b-
16e-	8f	16cc
16d	.	16b-
16c	8f	16a
16e-	.	16cc
=13	=13	=13
8d	4f	8b-
16D	.	8b-
16C	.	.
16BB-	4r	8dd
16AA	.	.
16BB-	.	8b-
16C	.	.
8D	16r	8ff
.	16A	.
[8F	16F	8a
.	16A	.
=14	=14	=14
8F]	8B-	8g
8BB-	8r	16een
.	.	16dd
8AA	4r	16ff
.	.	16ee
8BB-	.	16dd
.	.	16cc
8En	16r	8gg
.	16B-	.
[8G	16G	8b-
.	16B-	.
=15	=15	=15
8G]	8c	8a
16AA	8r	16ff
16BB-	.	16gg
8C	8r	16een
.	.	16ff
8C	16En	16gg
.	16F	16aa
8C	16G	16bb-
.	16F	16aa
8C	16E	16gg
.	16G	16bb-
=16	=16	=16
16C	8F	16aa
16BB-	.	16gg
16AA	8r	16ff
16BB-	.	16gg
8C	8r	16een
.	.	16ff
8C	16En	16gg
.	16F	16aa
8C	16G	16bb-
.	16F	16aa
8C	16E	16gg
.	16G	16bb-
=17	=17	=17
8FF	16F	16aa
.	16A	16bb-
8r	16B-	16aa
.	16c	16gg
8r	8d	16ff#
.	.	16gg
16F#	8d	16aa
16G	.	16bb-
16A	8d	16ccc
16G	.	16bb-
16F#	8d	16aa
16A	.	16ccc
=18	=18	=18
8G	16d	16bb-
.	16c	16aa
8r	16B-	16gg
.	16c	16aa
8r	8d	16ff#
.	.	16gg
16F#	8d	16aa
16G	.	16bb-
16A	8d	16ccc
16G	.	16bb-
16F#	8d	16aa
16A	.	16ccc
=19	=19	=19
8G	8d	16bb-
.	.	16aa
8D	8r	16gg
.	.	16ff
8C	4r	16ee-
.	.	16ff
8D	.	16gg
.	.	16aa
8GG	4r	16bb-
.	.	16aa
8E-	.	16gg
.	.	16bb-
=20	=20	=20
8F	2.r	16aa
.	.	16gg
8C	.	16ff
.	.	16ee-
8BB-	.	16dd
.	.	16ee-
8C	.	16ff
.	.	16gg
8FF	.	16aa
.	.	16gg
8D	.	16ff
.	.	16aa
=21	=21	=21
8E-	2.r	16gg
.	.	16ff
8BB-	.	16ee-
.	.	16dd
8AA	.	16cc
.	.	16dd
8BB-	.	16ee-
.	.	16ff
8EE-	.	16gg
.	.	16ff#
8C	.	16een
.	.	16gg
=22	=22	=22
8D	8r	16ff#
.	.	16een
8r	8d	16dd
.	.	16cc
4r	8e-	16b-
.	.	16a
.	8d	16b-
.	.	16cc
16r	8g	8dd
16G	.	.
16E-	8B-	[8gg
16G	.	.
=23	=23	=23
8C	8A	8gg]
8r	16f#	8cc
.	16en	.
4r	16g	8b-
.	16f#	.
.	16e	8cc
.	16d	.
16r	8a	8ff#
16A	.	.
16F#	8c	[8aa
16A	.	.
=24	=24	=24
8D	8B-	8aa]
8r	16g	16b-
.	16a	16cc
8r	16f#	8dd
.	16g	.
16FF#	16a	8dd
16GG	16b-	.
16AA	16cc	8dd
16GG	16b-	.
16FF#	16a	8dd
16AA	16cc	.
=25	=25	=25
8GG	16b-	16dd
.	16a	16cc
8r	16g	16b-
.	16a	16cc
8r	16f#	8dd
.	16g	.
16FF#	16a	8dd
16GG	16b-	.
16AA	16cc	8dd
16GG	16b-	.
16FF#	16a	8dd
16AA	16cc	.
=26	=26	=26
8GG	16b-	8dd
.	16cc	.
8G	16dd	8r
.	16ee-	.
8B-	16dd	4r
.	16cc	.
8G	16b-	.
.	16a-	.
8c	8g	16r
.	.	16ee-
8E-	[8cc	16cc
.	.	16ee-
=27	=27	=27
8D	8cc]	8ff
16Bn	8f	8r
16A	.	.
16c	8e-	4r
16B	.	.
16A	8f	.
16G	.	.
8d	8bn	16r
.	.	16ff
8F	[8dd	16dd
.	.	16ff
=28	=28	=28
8E-	8dd]	8gg
16c	16e-	8r
16d	16f	.
16Bn	8g	8r
16c	.	.
16d	8g	16bn
16e-	.	16cc
16f	8g	16dd
16e-	.	16cc
16d	8g	16b
16f	.	16dd
=29	=29	=29
16e-	16g	8cc
16d	16f	.
16c	16e-	8r
16d	16f	.
16Bn	8g	8r
16c	.	.
16d	8g	16bn
16e-	.	16cc
16f	8g	16dd
16e-	.	16cc
16d	8g	16b
16f	.	16dd
=30	=30	=30
16e-	8g	8cc
16d	.	.
16c	8r	8ee-
16B-	.	.
16A	4r	8dd
16B-	.	.
16c	.	8ee-
16d	.	.
16e-	8r	8cc
16d	.	.
16c	8ee-	8aa
16e-	.	.
=31	=31	=31
16d	8ff	8bb-
16c	.	.
16B-	8r	8dd
16A	.	.
16G	4r	8cc
16A	.	.
16B-	.	8dd
16c	.	.
16d	8r	8b-
16c	.	.
16B-	8dd	8gg
16d	.	.
=32	=32	=32
16c	8ee-	8aa
16B-	.	.
16A	8r	8cc
16G	.	.
16F#	4r	8b-
16G	.	.
16A	.	8cc
16B-	.	.
16c	8r	8a
16B-	.	.
16A	8cc	8ff#
16c	.	.
=33	=33	=33
8B-	8dd	16gg
.	.	16ffn
8G	8B-	16een
.	.	16dd
8F	8A	16cc#
.	.	16dd
8G	8B-	16ee
.	.	16ff
4En	8G	16gg
.	.	16ff
.	8c#	16ee
.	.	16gg
=34	=34	=34
8D	8d	16ff
.	.	16ee-
8F	8A-	16dd
.	.	16cc
8E-	8G	16bn
.	.	16cc
8F	8A-	16dd
.	.	16ee-
4D	8F	16ff
.	.	16ee-
.	8Bn	16dd
.	.	16ff
=35	=35	=35
8C	8c	16ee-
.	.	16cc
8r	8c	16bn
.	.	16a
4r	8e-	16g
.	.	16f
.	8c	16g
.	.	16cc
16r	8g	[4ee-
16C	.	.
16E-	8B-	.
16C	.	.
=36	=36	=36
8F	8A-	8ee-]
8r	16d	8a-
.	16c	.
4r	16e-	8g
.	16d	.
.	16c	8a-
.	16B-	.
16r	8f	8dd
16BB-	.	.
16D	8A-	[8ff
16BB-	.	.
=37	=37	=37
8E-	16G	8ff]
.	16B-	.
8r	16c	8b-
.	16d	.
4r	16e-	8cc
.	16d	.
.	16e-	8b-
.	16f	.
16r	8g	8ee-
16E-	.	.
16G	[8e-	8g
16E-	.	.
=38	=38	=38
8B-	8e-]	8f
8r	8A-	16dd
.	.	16cc
4r	8G	16ee-
.	.	16dd
.	8A-	16cc
.	.	16b-
16r	8d	8ff
16B-	.	.
16d	[8f	8a-
16B-	.	.
=39	=39	=39
8e-	8f]	8g
8r	16G	16ee-
.	16A-	16ff
8r	8B-	16dd
.	.	16ee-
16D	8B-	16ff
16E-	.	16gg
16F	8B-	16aa-
16E-	.	16gg
16D	8B-	16ff
16F	.	16aa-
=40	=40	=40
8E-	16B-	16gg
.	16A-	16ff
8r	16G	16ee-
.	16A-	16ff
8r	8B-	16dd
.	.	16ee-
16D	8B-	16ff
16E-	.	16gg
16F	8B-	16aa-
16E-	.	16gg
16D	8B-	16ff
16F	.	16aa-
=41	=41	=41
8E-	8B-	8.gg
8r	8e-	.
.	.	16ff
4r	8g	16ee-
.	.	16dd
.	8e-	16ee-
.	.	16ff
16r	8b-	8gg
16E-	.	.
16G	8d	[8bb-
16E-	.	.
=42	=42	=42
8F	8c	8bb-]
8r	16a	8ee-
.	16g	.
4r	16b-	8dd
.	16a	.
.	16g	8ee-
.	16f	.
16r	8cc	8aa
16F	.	.
16A	8e-	[8ccc
16F	.	.
=43	=43	=43
8B-	8d	8ccc]
8r	16b-	16dd
.	16cc	16ee-
8r	16a	8ff
.	16b-	.
16A	16cc	8ff
16B-	16dd	.
16c	16ee-	8ff
16B-	16dd	.
16A	16cc	8ff
16c	16ee-	.
=44	=44	=44
8B-	16dd	16ff
.	16cc	16ee-
8r	16b-	16dd
.	16cc	16ee-
8r	16a	8ff
.	16b-	.
16A	16cc	8ff
16B-	16dd	.
16c	16ee-	8ff
16B-	16dd	.
16A	16cc	8ff
16c	16ee-	.
=45	=45	=45
16B-	8dd	8ff
16F	.	.
16D	16F	8r
16E-	16G	.
8F	16A	8r
.	16B-	.
8F	16c	16a
.	16d	16b-
8F	16e-	16cc
.	16d	16b-
8F	16c	16a
.	16e-	16cc
=46	=46	=46
16F	16d	8b-
16E-	16c	.
16D	16B-	8r
16E-	16c	.
8F	16A	8r
.	16B-	.
8F	16c	16a
.	16d	16b-
8F	16e-	16cc
.	16d	16b-
8F	16c	16a
.	16e-	16cc
=47	=47	=47
16F	8d	8b-
16E-	.	.
16D	8b-	8gg
16E-	.	.
8F	4b-	4dd
8E-	.	.
8F	8a	4cc
8FF	8e-	.
=48	=48	=48
2.BB-;	2.d;	2.b-;
==	==	==
*-	*-	*-
!!!CDT: 1685/3/-1750/7/28
!!!OCY: Deutschland
!!!PPP: Coethen; Cothen; Co2then
!!!ODT: <1722//
!!!PDT: 1722
!!!AFR: fuga; fugue
!!!AST: polyphony
!!!AMT: simple triple
!!!SCA: Bach-Werke-Verzeichnis
!!!YOR: Bach Gesellschaft
!!!SMS: British Library, various
!!!AIN: cemba; clavi
!!!EEV: 1.0
!!!RDT: 1986 November 24
!!!YER: 1994 August 10
!!!EFL: 21/48
!!!VTS: 2061670292
